!!!COM: Angelo Berardi
!!!OPR: Documenti Armonici
!!!ONB: Canon at the seventh above after a semibreve, CF below
!!!PPR: Giacomo Monti
!!!PDT: 1687
!!!PPP: Bologna
!!!ONB: Reprint ed., Bologna: Forni., 1970.  Bk II p. 102.
!!!ONB: Transcribed from Angelo Berardi, Documenti Armonici, 1687,
**kern	**kern	**kern
*CF	*conseq	*guida
*k[]	*k[]	*k[]
*M4/4	*M4/4	*M4/4
=1-	=1-	=1-
1D	1r	2d
.	.	4f
.	.	4f
=2	=2	=2
1C	2E	4g
.	.	4.g
.	4G	.
.	.	8f
.	4G	8e
.	.	8d
=3	=3	=3
1AA	4A	4c
.	4.A	4cc
.	.	4cc
.	8G	.
.	8F	4cc
.	8E	.
=4	=4	=4
1BB	2D	4dd
.	.	4.dd
.	4d	.
.	.	8cc
.	4d	8b
.	.	8a
=5	=5	=5
1C	4e	4g
.	4.e	4.cc
.	8d	8b
.	8c	8a
.	8B	8g
=6	=6	=6
1D	4A	4.f
.	4.d	.
.	.	8d
.	.	4.dd
.	8c	.
.	8B	.
.	8A	8cc
=7	=7	=7
1E	4.G	4b
.	.	4.g
.	8E	.
.	4.e	.
.	.	8a
.	.	4b
.	8d	.
=8	=8	=8
1A	4c	4cc
.	4.A	8ee
.	.	8dd
.	.	8cc
.	8B	8b
.	4c	8a
.	.	8g
=9	=9	=9
1D	4d	2f
.	8f	.
.	8e	.
.	8d	8ff
.	8c	8ee
.	8B	8dd
.	8A	8cc
=10	=10	=10
1E	2G	8b
.	.	8a
.	.	8g
.	.	8f
.	8g	4e
.	8f	.
.	8e	4g
.	8d	.
=11	=11	=11
1F	8c	4.f
.	8B	.
.	8A	.
.	8G	8g
.	4F	4a
.	4A	4f
=12	=12	=12
1E	4.G	1g
.	8A	.
.	4B	.
.	4G	.
=13	=13	=13
[1D	[1A	2g
.	.	4f#
.	.	4e
=14	=14	=14
1D_	1A_	[1f#
=15	=15	=15
1D]	1A]	1f#]
==	==	==
*-	*-	*-
!!!CDT: ~1636//-1694/4/9
!!!CNT: Italia
!!!ODT: <1687//
!!!YEP: David Huron and Denis Collins
!!!YEN: Canada
!!!AIN: vox; ?
!!!AST: polyphony
!!!RDT: 1995 July 3
!!!YED: 1995 August 31
!!!AFR: cantus firmus canon
!!!AMT: simple quadruple
!!!EEV: 1.0
